outputs/icons/charts/analytics_round.svg

<svg xmlns="http://www.w3.org/2000/svg" width="1200" height="1200" fill="none"><path fill="#000" fill-rule="evenodd" d="M250 150h700c55 0 100 45 100 100v700c0 55-45 100-100 100H250c-55 0-100-45-100-100V250c0-55 45-100 100-100m78.748 628.01c-14.493 14.515-38.013 14.525-52.517.02-14.49-14.49-14.498-37.98-.018-52.48l200.931-201.2c19.523-19.545 51.201-19.555 70.736-.02L652.5 628.95l223.6-251.354c13.32-14.973 36.495-15.649 50.67-1.478 13.045 13.045 13.655 33.998 1.4 47.786L687.73 694.325c-19.115 21.5-52.38 22.475-72.72 2.135L512.5 593.95z"/></svg>

<svg width="1200" height="1200" viewBox="0 0 1200 1200" fill="none" xmlns="http://www.w3.org/2000/svg"><path fill-rule="evenodd" d="M250 150H950C1005 150 1050 195 1050 250V950C1050 1005 1005 1050 950 1050H250C195 1050 150 1005 150 950V250C150 195 195 150 250 150ZM328.748 778.01C314.255 792.525 290.735 792.535 276.231 778.03C261.741 763.54 261.733 740.05 276.213 725.55L477.144 524.35C496.667 504.805 528.345 504.795 547.88 524.33L652.5 628.95L876.1 377.596C889.42 362.623 912.595 361.947 926.77 376.118C939.815 389.163 940.425 410.116 928.17 423.904L687.73 694.325C668.615 715.825 635.35 716.8 615.01 696.46L512.5 593.95L328.748 778.01Z" fill="black"/></svg>
